X:359
T:John de Paris. RH.359
T:Jean de Paris,aka. RH.359
R:jig
S:Rev.R.Harrison’s MS,c1815,Cumbria
O:England
A:Temple Sowerby,Cumbria
Z:vmp.Simon Wilson. Review PJH, 2008.
M:6/8
L:1/8
Q:3/8=120
K:G
B2B BAB|d2B BAB|c2e g2e|d2B BAB|\
c2A AGA|B2G GFG|A2e efg|B2G G2:|!
|:d|d2c Bcd|e2f g2a|b2a gfe|d2c Bcd|\
e2e ecA|d2d dBG|c2B c2B|AFD D2D:|

